build/assets/img/svg/icon-arrow-4.svg

<svg width="99" height="89" viewBox="0 0 99 89" fill="none" xmlns="http://www.w3.org/2000/svg">
<path d="M74.4872 8.18517C73.0794 8.14347 71.7247 8.27879 70.4232 8.59113L70.9551 10.3613C72.0939 10.088 73.4485 9.95269 74.6937 10.0334L74.4872 8.18517ZM67.2665 11.4363L66.4093 9.7442C65.161 10.2336 63.9659 10.8999 62.9866 11.7043L63.9533 13.1803C65.2016 12.691 66.234 12.0636 67.2665 11.4363ZM61.4473 15.8693L60.1552 14.4714C59.2292 15.4527 58.3563 16.6111 57.8088 17.6914L59.373 18.8343C59.7579 17.793 60.5213 16.8507 61.4473 15.8693ZM57.621 22.2912L56.0004 21.5414C55.5593 22.9758 55.2808 24.3711 55.1651 25.7273L56.842 26.084C57.0109 24.9048 57.1267 23.5485 57.621 22.2912ZM64.538 54.602L62.9111 54.9924C63.3366 56.4086 63.5994 57.8637 63.9717 59.1029L65.6517 58.8895C65.2263 57.4733 64.9635 56.0181 64.538 54.602ZM63.0989 50.3926C62.6734 48.9765 62.0853 47.5994 61.5503 46.3993L59.9766 46.9668C60.5648 48.3439 60.9371 49.583 61.5252 50.9601L63.0989 50.3926ZM56.8732 30.2517L55.14 30.2881C55.1869 31.6053 55.4497 33.0605 55.9284 34.6536L57.6084 34.4402C57.1298 32.8471 57.0828 31.5299 56.8732 30.2517ZM60.0017 42.406C59.4135 41.0289 59.0412 39.7898 58.6158 38.3736L56.9889 38.7641C57.4144 40.1802 58.0025 41.5573 58.3748 42.7964L60.0017 42.406ZM65.8989 63.1951L64.1124 63.0545C64.053 64.0177 64.1562 64.9418 64.0968 65.905C64.0405 66.298 63.9841 66.6911 63.9278 67.0842L65.6579 67.6179C65.7142 67.2248 65.7705 66.8317 65.8269 66.4387C65.9958 65.2594 66.0021 64.1192 65.8989 63.1951ZM64.3908 71.5278L62.8797 70.562C62.3322 71.6423 61.622 72.7616 60.8586 73.704L62.1507 75.1019C63.0236 73.9435 63.7338 72.8242 64.3908 71.5278ZM58.8876 77.593L57.8677 75.94C57.1075 76.3122 56.5099 76.6454 55.6965 76.8406C55.3711 76.9187 54.8831 77.0358 54.5577 77.1139L54.9269 78.9231C55.4149 78.806 55.9561 78.8659 56.2815 78.7878C57.2576 78.5536 58.1806 78.1423 58.8876 77.593ZM51.0944 76.6166C49.9587 76.3198 48.8794 75.6299 47.5842 74.8021L46.8176 76.3145C48.3287 77.2803 49.5708 77.9312 50.7064 78.228L51.0944 76.6166ZM44.2397 72.3784C43.1072 71.5115 41.9747 70.6446 40.7326 69.9938L39.9661 71.5062C41.0455 72.1961 42.178 73.063 43.3105 73.9299L44.2397 72.3784ZM36.6812 68.1194C35.3296 67.6846 33.9218 67.6429 32.5139 67.6012L32.7204 69.4495C33.9124 69.3532 35.2107 69.611 36.3464 69.9078L36.6812 68.1194ZM29.1413 70.3084L28.4468 68.5773C27.1985 69.0666 26.0034 69.733 24.8614 70.5764L25.9908 72.0134C26.9701 71.209 28.0025 70.5817 29.1413 70.3084ZM23.4848 74.7024L22.0832 73.5205C21.3731 74.6398 20.8255 75.7201 20.5471 77.1154L22.1677 77.8652C22.4993 76.6469 22.8841 75.6057 23.4848 74.7024Z" fill="black"/>
<path d="M72.2752 17.0488L70.8992 15.8873L76.2056 9.5782L69.3256 3.77097L70.4515 2.38174L78.7596 9.52439L72.2752 17.0488Z" fill="black"/>
</svg>

<svg width="99" height="89" fill="none" xmlns="http://www.w3.org/2000/svg"><path d="M74.487 8.185a15.39 15.39 0 00-4.064.406l.532 1.77a13.036 13.036 0 013.739-.328l-.207-1.848zm-7.22 3.251l-.858-1.692c-1.248.49-2.443 1.156-3.422 1.96l.966 1.476c1.249-.489 2.281-1.116 3.313-1.744zm-5.82 4.433l-1.292-1.398c-.926.982-1.799 2.14-2.346 3.22l1.564 1.143c.385-1.041 1.148-1.983 2.074-2.965zm-3.826 6.422l-1.62-.75a20.035 20.035 0 00-.836 4.186l1.677.357c.169-1.18.285-2.535.779-3.793zm6.917 32.311l-1.627.39c.426 1.417.688 2.872 1.06 4.11l1.68-.212c-.425-1.417-.688-2.872-1.113-4.288zm-1.44-4.21c-.425-1.416-1.013-2.793-1.548-3.993l-1.573.568c.588 1.377.96 2.616 1.548 3.993l1.574-.567zm-6.225-20.14l-1.733.036c.047 1.317.31 2.772.788 4.366l1.68-.214c-.478-1.593-.525-2.91-.735-4.188zm3.129 12.154c-.589-1.377-.96-2.616-1.386-4.032l-1.627.39c.425 1.416 1.014 2.793 1.386 4.032l1.627-.39zm5.897 20.79l-1.787-.142c-.059.964.044 1.888-.015 2.851l-.17 1.18 1.73.533.17-1.18c.169-1.179.175-2.319.072-3.243zm-1.508 8.332l-1.511-.966a18.208 18.208 0 01-2.021 3.142l1.292 1.398a23.195 23.195 0 002.24-3.574zm-5.503 6.065l-1.02-1.653c-.76.372-1.358.705-2.172.9l-1.138.274.369 1.81c.488-.118 1.03-.058 1.355-.136.976-.234 1.899-.646 2.606-1.195zm-7.794-.976c-1.135-.297-2.215-.987-3.51-1.815l-.766 1.512c1.51.966 2.753 1.617 3.888 1.914l.388-1.611zm-6.854-4.239c-1.133-.867-2.265-1.733-3.507-2.384l-.767 1.512c1.08.69 2.212 1.557 3.344 2.424l.93-1.552zm-7.56-4.258c-1.351-.434-2.76-.476-4.167-.518l.206 1.849c1.192-.097 2.49.161 3.626.458l.335-1.789zm-7.54 2.19l-.694-1.732a15.623 15.623 0 00-3.586 2l1.13 1.436c.98-.804 2.012-1.431 3.15-1.705zm-5.656 4.393l-1.402-1.181c-.71 1.119-1.257 2.2-1.536 3.594l1.62.75c.332-1.218.717-2.26 1.318-3.163z" fill="#000"/><path d="M72.275 17.049L70.9 15.887l5.307-6.309-6.88-5.807 1.126-1.39 8.308 7.143-6.485 7.525z" fill="#000"/></svg>
